X:1
N: The Robertson Rant
N: 80S 4C Square set (RSCDS Bk 39)
P: Struan Robertson's Rant
C: from RSCDS Bk 39, arr. T. Traub 12-9-2006
R: Strathspey
M: 4/4
K: Em
L: 1/8
e|"Em"E<EG>A B>AB<d|"D"D<DF>E D/E/F/G/ A<F|"Em"E<EG>A B>AB<e|"D"d>BA>F "Em"E<E E|
g|"Em"e<fg>e b>eg>e|"D"f>ed>f a/g/f/e/ d<f|"Em"e>fg>e b>eg>e|"D"d>BA>F "Em"E<E E|
f|"Em"G>BE>B G>BE>B|"D"F>AD>A F>AD>A|"Em"G>BE>B G>BE>g|"D"f>da>f "Em"e2 e>f|
"Em"gF "Em"E<E E2|]
